img/notification-icon.svg

<svg fill="none" height="24" viewBox="0 0 24 24" width="24" xmlns="http://www.w3.org/2000/svg"><path d="m12 22c1.1 0 2-.9 2-2h-4c0 1.1.9 2 2 2zm6-6v-5c0-3.07-1.63-5.64-4.5-6.32v-.68c0-.83-.67-1.5-1.5-1.5s-1.5.67-1.5 1.5v.68c-2.86.68-4.5 3.24-4.5 6.32v5l-2 2v1h16v-1zm-2 1h-8v-6c0-2.48 1.51-4.5 4-4.5s4 2.02 4 4.5z" fill="#04162c" fill-opacity=".5"/></svg>

<svg width="24" height="24" viewBox="0 0 24 24" fill="none" xmlns="http://www.w3.org/2000/svg">
<path d="M12 22C13.1 22 14 21.1 14 20H10C10 21.1 10.9 22 12 22ZM18 16V11C18 7.93 16.37 5.36 13.5 4.68V4C13.5 3.17 12.83 2.5 12 2.5C11.17 2.5 10.5 3.17 10.5 4V4.68C7.64 5.36 6 7.92 6 11V16L4 18V19H20V18L18 16ZM16 17H8V11C8 8.52 9.51 6.5 12 6.5C14.49 6.5 16 8.52 16 11V17Z" fill="#04162C" fill-opacity="0.5"/>
</svg>
